X: 26867
T: Miners Of Wicklow, The
R: jig
M: 6/8
K: Dmajor
|:D|FGA AB=c|BGB AFA|BGE EGE|AFD DFD|
FGA AB=c|BGB AFA|Bcd ecA|d3 d2:|
|:g|fdf fdf|ece ece|fdf fdf|geg geg|
fdf fdf|ecA AcA|Bcd ecA|d3 d2:|

